src/lib/packages/icons/src/assets/line/spotify.svg

<svg width="24" height="24" viewBox="0 0 24 24" fill="none" xmlns="http://www.w3.org/2000/svg">
<path d="M12 1.25C6.07 1.25 1.25 6.07 1.25 12C1.25 17.93 6.07 22.75 12 22.75C17.93 22.75 22.75 17.93 22.75 12C22.75 6.07 17.93 1.25 12 1.25ZM12 21.25C6.9 21.25 2.75 17.1 2.75 12C2.75 6.9 6.9 2.75 12 2.75C17.1 2.75 21.25 6.9 21.25 12C21.25 17.1 17.1 21.25 12 21.25ZM16.67 16.09C16.67 16.46 16.38 16.71 16.06 16.71C15.89 16.71 15.79 16.66 15.63 16.56C13.11 15.04 10.19 14.98 7.29999 15.57C7.13999 15.61 6.94001 15.67 6.82001 15.67C6.43001 15.67 6.17999 15.36 6.17999 15.03C6.17999 14.61 6.43001 14.42 6.73001 14.35C10.03 13.62 13.41 13.68 16.29 15.41C16.54 15.57 16.68 15.71 16.68 16.08L16.67 16.09ZM17.92 13.28C17.92 13.72 17.58 14.07 17.14 14.07C16.93 14.07 16.79 13.98 16.64 13.9C14.12 12.41 10.36 11.81 7.01999 12.71C6.82999 12.76 6.72001 12.81 6.54001 12.81C6.11001 12.81 5.76001 12.46 5.76001 12.03C5.76001 11.6 5.97001 11.31 6.38 11.2C7.5 10.89 8.65001 10.65 10.32 10.65C12.94 10.65 15.47 11.3 17.46 12.48C17.79 12.67 17.92 12.92 17.92 13.27V13.28ZM19.32 10.05C19.32 10.6 18.88 10.99 18.38 10.99C18.17 10.99 18.04 10.94 17.86 10.83C14.99 9.12 9.86 8.71 6.53 9.63C6.38 9.67 6.20001 9.73 6.01001 9.73C5.48001 9.73 5.07001 9.31 5.07001 8.78C5.07001 8.25 5.40999 7.92001 5.76999 7.82001C7.18999 7.40001 8.78001 7.21001 10.51 7.21001C13.45 7.21001 16.54 7.82 18.79 9.14C19.1 9.32 19.31 9.57 19.31 10.05H19.32Z" fill="currentColor"/>
</svg>

<svg xmlns="http://www.w3.org/2000/svg" width="24" height="24" fill="none"><path fill="currentColor" d="M12 1.25C6.07 1.25 1.25 6.07 1.25 12S6.07 22.75 12 22.75 22.75 17.93 22.75 12 17.93 1.25 12 1.25Zm0 20c-5.1 0-9.25-4.15-9.25-9.25S6.9 2.75 12 2.75 21.25 6.9 21.25 12 17.1 21.25 12 21.25Zm4.67-5.16c0 .37-.29.62-.61.62-.17 0-.27-.05-.43-.15-2.52-1.52-5.44-1.58-8.33-.99-.16.04-.36.1-.48.1-.39 0-.64-.31-.64-.64 0-.42.25-.61.55-.68 3.3-.73 6.68-.67 9.56 1.06.25.16.39.3.39.67l-.01.01Zm1.25-2.81c0 .44-.34.79-.78.79-.21 0-.35-.09-.5-.17-2.52-1.49-6.28-2.09-9.62-1.19-.19.05-.3.1-.48.1-.43 0-.78-.35-.78-.78 0-.43.21-.72.62-.83 1.12-.31 2.27-.55 3.94-.55 2.62 0 5.15.65 7.14 1.83.33.19.46.44.46.79v.01Zm1.4-3.23c0 .55-.44.94-.94.94-.21 0-.34-.05-.52-.16-2.87-1.71-8-2.12-11.33-1.2-.15.04-.33.1-.52.1-.53 0-.94-.42-.94-.95s.34-.86.7-.96c1.42-.42 3.01-.61 4.74-.61 2.94 0 6.03.61 8.28 1.93.31.18.52.43.52.91h.01Z"/></svg>
